X: 43030
T: Wilshire Lasses
R: slip jig
M: 9/8
K: Dmajor
F2A ABF A2F|G2B Bcd c2d|F2A Adc ~A3|~G3 ~E3 GFE|
F2A ABF AFD|GAB Bcd c2d|A2e fed cBA|~G3 ~E3 GFE||
D2f fef fed|B2g gfg fed|A2f ~f3 afd|Bcd e2d c2A|
D2f ~f3 fed|Bgg ~g3fed|agf gec d2A|~G3 ~E3 GFE||

